X: 81
T: The Adieu
%R: reel
B: Chas & Sam Thompson "Twenty Four Country Dances for the Year 1776", London 1776, p.41 #1
F: http://www.vwml.org/browse/browse-collections-dance-tune-books/browse-thompsons1776#
Z: 2014 John Chambers <jc:trillian.mit.edu> (added dance description)
M: 2/4
L: 1/16
K: Bb
% - - - - - - - - - - - - - - - - - - - - - - - - - - - - -
|:\
B3c d2cB | c2BA B2AG | F2E2 D2CB, | e2d2d2c2 |\
B3c d2cB | c2BA B2AG | F2E2 Dgfe | dcBA B4 :|
|:\
fede f2f2 | f2b2b2a2 | a2g2g2f2 | f2e2 d4 |\
fefg f3f | f2b2B2e2 | d4 c4 | B8 :|
|:\
B,3CD2D2 | D2E2F2F2 | B3Bd3B | A2F2 F4 |\
B,3CD2D2 | D2F2 AGFE | D4 C4 | B,8 :|
|:\
f2fe d2e2 | f3bf3b | agfe d3e | f2d2 B4 |\
f2fe d2e2 | fgab bfdB | d4 Tc4 | B8 :|
% - - - - - - - - - - Dance description - - - - - - - - - -
%%begintext align
%% Foot it all 4 & change places .| the same back again :| lead down the
%% middle .|| up again & cast off :|| fall in bott: & top & foot it then
%% side ways .||| Allemand right hands then Allemand left hands .|||
%%endtext

%%sep 1 1 500
%%sep 1 1 500
